!!!OTL: WOHL AUF IHR BRUEDER
!!!ARE: Europa, Mitteleuropa, Deutschland, Hessen, Darmstadt; Ober- Lahnkreis
!!!SCT: E1356
!!!YEM: Copyright 1995, estate of Helmut Schaffrath.
**kern
*ICvox
*Ivox
*M4/4
*k[b-]
*F:
{4c
=1
4f
4f
8.a
16g
8.f
16g
=2
4a
8.a
16a
4a}
{8f
8a
=3
4.cc
8cc
8.dd
16cc
8.b-
16a
=4
4a
4g
4r}
{8.g
16a
=5
4b-
4dd
4dd
8.cc
16b-
=6
4a
8.cc
16dd
4cc}
{8.b-
16a
=7
4g
4g
8.b-
16b-
8a
8g
=8
8.cc
16cc
8cc
8b-
4a}
==
!!!AGN: Staende -, Soldaten -, Kriegs - Lied
!!!ONB: ESAC (Essen Associative Code) Database: ERK3
!!!AMT: simple quadruple
!!!AIN: vox
!!!EED: Helmut Schaffrath
!!!EEV: 1.0
*-
